!!!!SEGMENT: Lpi1001b-Missa_Philomena-Gloria.krn
!!!id: Lpi1001b
!!!AGN: Mass; Gloria
!!!SCT: Blackburn (1989)
!!!voices: 4
!!!COM: Johannes Lupi
!!!OTL: Gloria
**kern	**kern	**kern	**kern
*part4	*part3	*part2	*part1
*staff4	*staff3	*staff2	*staff1
*I"Bassus	*I"Tenor	*I"Altus	*I"Superius
*I'B	*I'T	*I'A	*I'S
*clefF4	*clefF4	*clefGv2	*clefG2
*k[b-]	*k[b-]	*k[b-]	*k[b-]
*F:	*F:	*F:	*F:
*M2/1	*M2/1	*M2/1	*M2/1
*met(C|)	*met(C|)	*met(C|)	*met(C|)
!!section: Et in terra pax
!!!OMD: Et in terra pax
=1	=1	=1	=1
0r	0r	1.c	1r
.	.	.	[1g
.	.	2c	.
=2	=2	=2	=2
0r	0r	2B-y	2g]
.	.	2G	2g
.	.	2.B-y	2f
.	.	.	2d
.	.	4c	.
=3	=3	=3	=3
0r	0r	1d	2.f
.	.	.	4g
.	.	2.d	2a
.	.	.	2b-y
.	.	4e	.
=4	=4	=4	=4
0r	0r	4f	2a
.	.	4d	.
.	.	1g	2g
.	.	.	1a
.	.	2f#i	.
=5	=5	=5	=5
0r	0r	2g	1g
.	.	2G	.
.	.	4G	2r
.	.	4A	.
.	.	4B-y	2g
.	.	4c	.
=6	=6	=6	=6
0r	0r	2d	2f
.	.	2.f	2d
.	.	.	1f
.	.	4e	.
.	.	[2d	.
=7	=7	=7	=7
2r	1r	2d]	1e
2C	.	2c	.
2BB-y	2r	2d	[1d
2GG	2G	[2B-y	.
=8	=8	=8	=8
2.BB-y	2F	2B-]	1d]
.	2D	4A	.
4C	.	4G	.
2D	2.F	1F	1r
2D	.	.	.
.	4G	.	.
=9	=9	=9	=9
2.D	2A	1r	0r
.	2B-y	.	.
4E	.	.	.
4F	2A	[1c	.
4D	.	.	.
[2G	2G	.	.
=10	=10	=10	=10
2G]	2A	2c]	0r
2F#i	2A	2c	.
[1G	2G	2B-y	.
.	[2B-y	2G	.
=11	=11	=11	=11
1G]	4B-]	1B-y	1.g
.	4A	.	.
.	4G	.	.
.	4F	.	.
1r	1E	1c	.
.	.	.	2g
=12	=12	=12	=12
0r	0D	2d	2f
.	.	2.f	2d
.	.	.	1f
.	.	4e	.
.	.	[2d	.
=13	=13	=13	=13
1r	0r	2d]	1e
.	.	2c	.
2r	.	1d	2d
[2G	.	.	2d
=14	=14	=14	=14
2G]	0r	2r	2B-y
2G	.	2G	2.e-i
2F	.	2A	.
.	.	.	4d
4E	.	[2B-y	[2d
4D	.	.	.
=15	=15	=15	=15
1E	0r	2B-]	2d]
.	.	4A	2c#i
.	.	4G	.
[1D	.	2.F	1d
.	.	4G	.
=16	=16	=16	=16
1D]	0r	4A	2r
.	.	4G	.
.	.	4F	2d
.	.	4E	.
1r	.	2D	2d
.	.	2d	2d
=17	=17	=17	=17
0r	1r	2d	4G
.	.	.	4A
.	.	2d	4B-y
.	.	.	4c
.	2r	4G	4d
.	.	4A	4c
.	2D	4B-y	4d
.	.	4G	4e
=18	=18	=18	=18
0r	2D	2A	2f
.	2D	1B-y	1d
.	4GG	.	.
.	4AA	.	.
.	4BB-y	4A	4c
.	4C	4G	4B-y
=19	=19	=19	=19
2r	4D	1F	1A
.	4E	.	.
2D	4F	.	.
.	4G	.	.
2D	2A	1r	1r
2D	[2B-y	.	.
=20	=20	=20	=20
2GG	4B-]	1r	0r
.	4A	.	.
2.C	4G	.	.
.	4F	.	.
.	4E	2r	.
4BB-y	4D	.	.
4AA	[2G	2c	.
4GG	.	.	.
=21	=21	=21	=21
1AA	2G]	2c	0r
.	2F#i	2c	.
[1GG	[1G	2B-y	.
.	.	2G	.
=22	=22	=22	=22
1GG]	1G]	1B-y	1g
1r	1r	1c	2g
.	.	.	2g
=23	=23	=23	=23
0r	0r	2d	2f
.	.	2.f	2d
.	.	.	1f
.	.	4e	.
.	.	[2d	.
=24	=24	=24	=24
0r	1r	2d]	1e
.	.	2c#i	.
.	2r	1d	[1d
.	2G	.	.
=25	=25	=25	=25
0r	2G	2r	1d]
.	2G	2G	.
.	1B-y	2G	2r
.	.	2G	2d
=26	=26	=26	=26
0r	2G	2.B-y	2d
.	1B-y	.	2d
.	.	4c	.
.	.	4d	2.f
.	.	4e	.
.	4A	[2f	.
.	4G	.	4g
=27	=27	=27	=27
2r	2F	4f]	2a
.	.	4e	.
2GG	2G	4d	2.b-y
.	.	4c	.
2GG	2D	1d	.
.	.	.	4a
2GG	[2B-y	.	2g
=28	=28	=28	=28
2BB-y	2B-]	1d	2f
2GG	4A	.	2b-y
.	4G	.	.
2D	2F	2d	4a
.	.	.	4g
2E	2G	2c	[2g
=29	=29	=29	=29
1D	1A	1d	2g]
.	.	.	2f#i
1GG	[1G	[1B-y	2g
.	.	.	2G
=30	=30	=30	=30
2r	1G]	1B-]	4B-y
.	.	.	4A
1G	.	.	4B-y
.	.	.	4c
.	1r	2r	2d
2G	.	2G	[2e
=31	=31	=31	=31
2F	1r	2A	4e]
.	.	.	4d
4E	.	2B-y	1d
4D	.	.	.
1E	1G	4c	.
.	.	4B-y	.
.	.	4A	2c#i
.	.	4G	.
=32	=32	=32	=32
0D	2A	2F	1d
.	1B-y	2f	.
.	.	2d	1r
.	4A	[2f	.
.	4G	.	.
=33	=33	=33	=33
0r	2F	4f]	2r
.	.	4e	.
.	1G	4d	2d
.	.	4c	.
.	.	2B-y	2e
.	4F	4A	[2f
.	4E	4G	.
=34	=34	=34	=34
0r	2D	2A	4f]
.	.	.	4e
.	2.G	2B-y	4d
.	.	.	4c
.	.	1G	2B-y
.	4F	.	.
.	[2B-y	.	2d
=35	=35	=35	=35
0r	2B-]	2r	2d
.	4A	2c	4c
.	4G	.	4B-y
.	1F	2c	2A
.	.	2c	2A
=36	=36	=36	=36
0r	2r	2B-y	4G
.	.	.	4A
.	2G	2G	4B-y
.	.	.	4c
.	2G	2B-y	4d
.	.	.	4c
.	2F	2c	4d
.	.	.	4e
=37	=37	=37	=37
0r	2D	1d	4f
.	.	.	4g
.	2F	.	2.a
.	2E	1G	.
.	.	.	4g
.	2E	.	2g
=38	=38	=38	=38
2r	2D	2.d	2f
2G	4GG	.	2.b-y
.	4AA	4c	.
2G	4BB-y	4d	.
.	4C	4e	4a
2F	4D	[2f	[2a
.	4E	.	.
=39	=39	=39	=39
2D	4F	4f]	2a]
.	4G	4e	.
2F	1A	1d	4g
.	.	.	4f
2E	.	.	1g
2E	2G	2c#i	.
=40	=40	=40	=40
0D	1A	[0d	[0f
.	2r	.	.
.	2F	.	.
=41	=41	=41	=41
2r	1B-y	0d]	0f]
2BB-y	.	.	.
2BB-y	1B-y	.	.
2BB-y	.	.	.
=42	=42	=42	=42
2C	2.A	2r	2r
2D	.	2d	2f
.	4G	.	.
4D	2F	2d	2f
4C	.	.	.
4BB-y	[2B-y	2d	2f
4AA	.	.	.
=43	=43	=43	=43
2GG	4B-]	1d	1g
.	4A	.	.
2BB-y	1G	.	.
1AA	.	1c	1a
.	2F#i	.	.
=44	=44	=44	=44
1GG	2.G	2B-y	2.b-y
.	.	2.d	.
.	4E	.	4g
1r	2F	.	2a
.	.	4c	.
.	[2G	4B-y	[2b-y
.	.	4A	.
=45	=45	=45	=45
0r	4G]	2G	4b-]
.	4F	.	4a
.	4E	2B-y	1g
.	4D	.	.
.	2C	1A	.
.	2D	.	2f#i
=46	=46	=46	=46
0r	2GG	1G	1g
.	1G	.	.
.	.	2r	1a
.	2F#i	[2d	.
=47	=47	=47	=47
2r	1G	2d]	0g
1G	.	2d	.
.	1C	2.e	.
2G	.	.	.
.	.	4d	.
=48	=48	=48	=48
2.A	0r	2c	0r
.	.	2.f	.
4G	.	.	.
2F	.	.	.
.	.	4e	.
[2G	.	4d	.
.	.	4c	.
=49	=49	=49	=49
4G]	2r	4B-y	2r
4F	.	4A	.
4E	1G	1d	1g
4D	.	.	.
1E	.	.	.
.	2G	2c#i	2g
=50	=50	=50	=50
1D	2.A	1d	2.f
.	4G	.	8eL
.	.	.	8dJ
1r	2F	1r	2f
.	[2G	.	[2e
=51	=51	=51	=51
0r	4G]	2r	4e]
.	4F	.	4d
.	4E	2G	1d
.	4D	.	.
.	1E	2G	.
.	.	2G	2c#i
=52	=52	=52	=52
0r	2D	2F	0d
.	4GG	2G	.
.	4AA	.	.
.	4BB-y	2D	.
.	4C	.	.
.	4D	[2f	.
.	4E	.	.
=53	=53	=53	=53
2r	2F	4f]	0r
.	.	4e	.
1G	2G	1d	.
.	1E	.	.
2G	.	2c#i	.
=54	=54	=54	=54
2F	2D	0d	2r
2G	2G	.	2B-y
1D	2G	.	2B-y
.	2F	.	2A
=55	=55	=55	=55
2r	2G	1d	2B-y
1G	2.B-y	.	4G
.	.	.	4A
.	.	2d	4B-y
.	4A	.	4c
2G	4B-y	2d	4d
.	4G	.	4e
=56	=56	=56	=56
1F	2A	0d	4f
.	.	.	4g
.	2F	.	2.a
1G	[1B-y	.	.
.	.	.	4g
.	.	.	[2g
=57	=57	=57	=57
0D	2B-]	[0dl	2g]
.	4A	.	4f#i
.	4G	.	4e
.	1A	.	1f#i
=58	=58	=58	=58
1r	2G	0d_	2g
.	1G	.	1b-y
2GG	.	.	.
2GG	2G	.	2b-y
=59	=59	=59	=59
1D	1F	0d_	1a
2.GG	1G	.	1g
4AA	.	.	.
=	=	=	=
00BB-y	00D	00d]	00f
=||	=||	=||	=||
*M2/1	*M2/1	*M2/1	*M2/1
*met(C|)	*met(C|)	*met(C|)	*met(C|)
!!section: Qui tollis
!!!OMD: Qui tollis
1D	0r	1r	0r
2.F	.	1D	.
4E	.	.	.
=60	=60	=60	=60
4D	0r	2.F	0r
4C	.	.	.
2.D	.	.	.
.	.	4G	.
.	.	2A	.
4C	.	.	.
4BB-y	.	[2B-y	.
4AA	.	.	.
=61	=61	=61	=61
4GG	1D	2B-]	0r
4FF	.	.	.
2.F	.	4A	.
.	.	4G	.
.	2.F	2.A	.
4E	.	.	.
2D	.	.	.
.	4G	4B-y	.
=62	=62	=62	=62
2C	2A	2c	0r
2BB-y	1B-y	1d	.
1E-i	.	.	.
.	4A	2c	.
.	4G	.	.
=63	=63	=63	=63
0D	2B-y	1d	1r
.	2.A	.	.
.	.	2r	1d
.	4G	.	.
.	4F	[2f	.
.	4E	.	.
=64	=64	=64	=64
0r	2.D	4f]	2.f
.	.	4e	.
.	.	2d	.
.	4E	.	4g
.	2F	2c	2a
.	[2G	2B-y	2b-y
=65	=65	=65	=65
0r	2G]	1e-i	2b-y
.	4F	.	4a
.	4E	.	4g
.	2G	[1d	2b-y
.	4F	.	2a
.	4E	.	.
=66	=66	=66	=66
1r	2D	2d]	2.f
.	4BB-y	4c	.
.	4C	4B-y	4e
2r	4D	4A	2d
.	4E	4G	.
[2F	4F	4A	2c
.	4G	4B-y	.
=67	=67	=67	=67
4F]	2A	4c	1f
4E	.	4A	.
2D	2F	2B-y	.
2C	2G	2c	2e
2BB-y	[2B-y	2F	[2d
=68	=68	=68	=68
1E-i	2B-]	4G	2d]
.	.	4F	.
.	4A	4G	2c
.	4G	4A	.
1D	2.F	2B-y	[1d
.	.	2A	.
.	4G	.	.
=69	=69	=69	=69
1D	1A	2r	1d]
.	.	2F	.
2r	1D	2F	2r
2BB-y	.	2F	2d
=70	=70	=70	=70
2GG	2r	2G	2d
2.BB-y	2D	2F	2d
.	2D	1B-y	2f
4AA	.	.	.
2GG	2D	.	2g
=71	=71	=71	=71
2FF	2F	1A	2.a
2F	2D	.	.
.	.	.	4g
2D	2.F	2A	4a
.	.	.	4b-y
[2F	.	4D	[2a
.	4G	4E	.
=72	=72	=72	=72
4F]	2.A	4F	4a]
4E	.	4G	4g
2D	.	4A	2f
.	4G	4B-y	.
2C	2A	2c	2e
2BB-y	[2B-y	2F	[2d
=73	=73	=73	=73
1E-i	2B-]	4G	4d]
.	.	4A	4G
.	4A	4B-y	1g
.	4G	4c	.
1D	1A	1d	.
.	.	.	2f#i
=74	=74	=74	=74
1GG	1G	1B-y	1g
[1C	1r	[1c	[1g
=75	=75	=75	=75
2C]	0G	2c]	2g]
2C	.	2c	2g
1C	.	2c	1g
.	.	2G	.
=76	=76	=76	=76
0r	1G	2.B-y	2r
.	.	.	2g
.	.	4c	.
.	1G	2d	2b-y
.	.	2e	2b-y
=77	=77	=77	=77
0r	1r	2.f	2.a
.	.	4e	4g
.	2r	4d	4f
.	.	4c	4e
.	2G	[2e	[2g
=78	=78	=78	=78
0r	2B-y	4e]	4g]
.	.	4d	4f
.	2B-y	1d	4e
.	.	.	4d
.	2.A	.	1e
.	.	2c#i	.
.	4G	.	.
=79	=79	=79	=79
2r	2F	2d	2r
2GG	2.G	2.B-y	2d
2BB-y	.	.	2d
.	4F	4A	.
2BB-y	4E	4F	2d
.	4D	4G	.
=80	=80	=80	=80
2.AA	2E	4A	2.c
.	.	4G	.
.	2.F	2.A	.
4GG	.	.	4B-y
2FF	.	.	1A
.	4E	4G	.
[2F	[2D	4F	.
.	.	4E	.
=81	=81	=81	=81
4F]	4D]	1D	2.A
4E	4C	.	.
1D	2BB-y	.	.
.	.	.	4F
.	2AA	1E	4A
.	.	.	4B-y
2C	2A	.	2c
=82	=82	=82	=82
0D	4A	1D	2B-y
.	4G	.	.
.	1G	.	4A
.	.	.	4G
.	.	2r	1A
.	2F#i	2d	.
=83	=83	=83	=83
0r	0G	2.B-y	2G
.	.	.	2g
.	.	4c	.
.	.	2d	2b-y
.	.	2e	2b-y
=84	=84	=84	=84
0r	1r	2.f	2.a
.	.	4e	4g
.	2r	4d	2f
.	.	4c	.
.	2G	[2e	[2g
=85	=85	=85	=85
0r	1B-y	4e]	4g]
.	.	4d	4f
.	.	1d	4e
.	.	.	4d
.	2A	.	1e
.	2A	2c#i	.
=86	=86	=86	=86
0r	2B-y	1d	2d
.	2B-y	.	2g
.	2.G	2r	2g
.	.	2d	2g
.	4A	.	.
=87	=87	=87	=87
1r	2B-y	2d	2f
.	2B-y	2d	4e
.	.	.	4d
2r	2A	2c	2f
2GG	2G	[2B-y	2e
=88	=88	=88	=88
2BB-y	2.F	2B-]	2d
2BB-y	.	4A	2.f
.	4G	4G	.
2.AA	4A	2.c	.
.	4B-y	.	4e
.	[2A	.	[2e
4GG	.	4B-y	.
=89	=89	=89	=89
2FF	2A]	2c	4e]
.	.	.	4d
2GG	4G	2B-y	1d
.	4F	.	.
1AA	1E	1A	.
.	.	.	2c#i
=90	=90	=90	=90
1BB-y	2D	2r	[0d
.	2D	2F	.
1GG	2D	2G	.
.	2G	[2B-y	.
=91	=91	=91	=91
1D	2F	2B-]	0d]
.	2B-y	4A	.
.	.	4G	.
2D	2A	2F	.
2D	[2B-y	[2f	.
=92	=92	=92	=92
2BB-y	2B-]	4f]	1r
.	.	4e	.
2C	4A	2e	.
.	4G	.	.
2.D	1F	2.d	2r
.	.	.	2d
4E	.	[4c	.
=93	=93	=93	=93
2F	1r	4c]	2d
.	.	8B-yL	.
.	.	8AJ	.
2.G	.	2B-y	2d
.	2r	2G	2B-y
4F	.	.	.
2E	2G	[2c	2c
=94	=94	=94	=94
1D	2F	2c]	1d
.	2B-y	2B-y	.
1C	2A	1c	1e
.	[2G	.	.
=95	=95	=95	=95
0r	2G]	2r	4d
.	.	.	4e
.	4F	1d	4f
.	4E	.	4g
.	2F	.	2a
.	[2G	2d	[2b-y
=96	=96	=96	=96
0r	4G]	2B-y	4b-]
.	4F	.	4a
.	4E	2c	4g
.	4D	.	4f
.	1C	2e-i	1g
.	.	2e-i	.
=97	=97	=97	=97
1r	2D	1.d	2f
.	2.B-y	.	2d
2r	.	.	2f
.	4A	.	.
2C	[2A	2c	[2e-X
=98	=98	=98	=98
1E-X	4A]	2B-y	2e-]
.	4G	.	.
.	2.G	4A	2c
.	.	4G	.
2.D	.	1A	[1d
.	8F#iL	.	.
.	8EJ	.	.
.	2F#i	.	.
4C	.	.	.
=99	=99	=99	=99
2BB-y	4G	2r	2d]
.	4F	.	.
2C	4E	2.G	2c
.	4D	.	.
2GG	1E-i	.	2B-y
.	.	4A	.
2G	.	4B-y	4A
.	.	4G	4G
=100	=100	=100	=100
2G	2.D	2A	1d
2F#i	.	1d	.
.	4C	.	.
[1G	2BB-y	.	2r
.	2C	2c	2g
=101	=101	=101	=101
1G]	1GG	4B-y	1b-y
.	.	4c	.
.	.	4d	.
.	.	4e	.
2r	1r	2f	2.a
[2D	.	4F	.
.	.	4G	4g
=102	=102	=102	=102
2D]	2r	4A	2f
.	.	4B-y	.
2C	2G	2c	2e
2BB-y	1B-y	2F	4d
.	.	.	4e
4AA	.	[2f	4f
4GG	.	.	4g
=103	=103	=103	=103
2FF	2A	4f]	4a
.	.	4e	4g
2GG	2G	2.d	2.b-y
2D	2F	.	.
.	.	8cL	4a
.	.	8B-yJ	.
2E	2G	2c	[2g
=104	=104	=104	=104
1D	1A	1d	2g]
.	.	.	2f#i
1GG	1G	[1B-y	1g
=105	=105	=105	=105
1BB-y	2r	1B-]	0r
.	2F	.	.
1BB-y	2B-y	1r	.
.	2B-y	.	.
=106	=106	=106	=106
2C	2.A	1r	2r
2.D	.	.	2f
.	4G	.	.
.	2F	2r	2f
4C	.	.	.
4BB-y	[2B-y	2d	2f
4AA	.	.	.
=107	=107	=107	=107
2GG	4B-]	1d	1g
.	4A	.	.
2BB-y	1G	.	.
1AA	.	1c	1a
.	2F#i	.	.
=108	=108	=108	=108
1GG	1G	2B-y	2.b-y
.	.	2.d	.
.	.	.	4g
1r	2r	.	2a
.	.	4c	.
.	2G	4B-y	[2b-y
.	.	4A	.
=109	=109	=109	=109
1r	2B-y	2G	4b-]
.	.	.	4a
.	2B-y	2B-y	1g
2r	2A	2c	.
2D	[2A	[2d	2f#i
=110	=110	=110	=110
2E-X	2A]	2d]	1g
2E-i	2G	2c	.
[1D	2.A	[1d	1r
.	4G	.	.
=111	=111	=111	=111
1D]	2A	0d]	2r
.	1B-y	.	2f
1GG	.	.	2b-y
.	4A	.	2b-y
.	4G	.	.
=112	=112	=112	=112
1D	2F	2r	2.a
.	1D	2f	.
.	.	.	4g
1r	.	2d	2f
.	2A	2e	2e
=113	=113	=113	=113
1r	2.D	2f	4d
.	.	.	4e
.	.	2.f	4f
.	4E	.	4g
2r	2F	.	2a
.	.	4e	.
2GG	2G	4d	[2b-y
.	.	4c	.
=114	=114	=114	=114
2GG	2D	1d	4b-]
.	.	.	4a
2GG	2.B-y	.	2g
2.BB-y	.	2r	2f
.	4A	.	.
.	2G	[2d	2b-y
4C	.	.	.
=115	=115	=115	=115
2D	2F	2d]	4a
.	.	.	4g
2E	2G	2B-y	1g
2C	1A	2e-i	.
2D	.	[2d	2f#i
=116	=116	=116	=116
2GG	[0Gl	4d]	[0gl
.	.	4B-y	.
1C	.	1e-i	.
4BB-y	.	4d	.
4AA	.	4c	.
=117	=117	=117	=117
00GGl	00G]	00B-yl	00g]
==	==	==	==
*-	*-	*-	*-
!!!system-decoration: [*]
!!!RDF**kern: i = editorial accidental
!!!RDF**kern: l = terminal long
!!!ENC: Benjamin Ory
!!!END: 2022/3/28
!!!EED: Benjamin Ory
!!!EEV: 2022/03/28
!!!YEC: Copyright 2022 Benjamin Ory, All Rights Reserved
!!!ONB: Translated from MusicXML on 2022/03/28
